;START_OF_HEADER
;HEADER_VERSION:0.1
;FLAVOR:Griffin
;GENERATOR.NAME:Cura_SteamEngine
;GENERATOR.VERSION:4.6.2
;GENERATOR.BUILD_DATE:2020-07-13
;TARGET_MACHINE.NAME:Ultimaker S5
;EXTRUDER_TRAIN.0.INITIAL_TEMPERATURE:205
;EXTRUDER_TRAIN.0.MATERIAL.VOLUME_USED:1672
;EXTRUDER_TRAIN.0.MATERIAL.GUID:506c9f0d-e3aa-4bd4-b2d2-23e2425b1aa9
;EXTRUDER_TRAIN.0.NOZZLE.DIAMETER:0.4
;EXTRUDER_TRAIN.0.NOZZLE.NAME:AA 0.4
;BUILD_PLATE.TYPE:glass
;BUILD_PLATE.INITIAL_TEMPERATURE:60
;BUILD_VOLUME.TEMPERATURE:28
;PRINT.TIME:880
;PRINT.GROUPS:1
;PRINT.SIZE.MIN.X:208.059
;PRINT.SIZE.MIN.Y:35.936
;PRINT.SIZE.MIN.Z:0.2
;PRINT.SIZE.MAX.X:251.919
;PRINT.SIZE.MAX.Y:59.796
;PRINT.SIZE.MAX.Z:5
;END_OF_HEADER
;Generated with Cura_SteamEngine 4.6.2
T0
M82 ;absolute extrusion mode

G92 E0
M109 S205
G280 S1
G0 Z20.001
G1 F1500 E-6.5
;LAYER_COUNT:25
;LAYER:0
M107
M204 S625
M205 X10 Y10
G1 F600 Z2.2
G0 F2571.4 X248.289 Y58.96 Z2.2
M204 S500
M205 X5 Y5
;TYPE:SKIRT
G1 F600 Z0.2
G1 F1500 E0.00000
G1 F1200 X246.913 Y59.524 E0.01958
G1 X245.449 Y59.781 E0.03915
G1 X214.989 Y59.796 E0.44023
G1 X213.511 Y59.637 E0.45981
G1 X212.101 Y59.166 E0.47938
G1 X210.824 Y58.405 E0.49895
G1 X209.739 Y57.389 E0.51853
G1 X208.895 Y56.166 E0.53809
G1 X208.331 Y54.79 E0.55767
G1 X208.074 Y53.326 E0.57725
G1 X208.059 Y42.866 E0.71498
G1 X208.218 Y41.388 E0.73455
G1 X208.689 Y39.978 E0.75412
G1 X209.45 Y38.701 E0.77370
G1 X210.466 Y37.616 E0.79327
G1 X211.689 Y36.772 E0.81284
G1 X213.065 Y36.208 E0.83242
G1 X214.529 Y35.951 E0.85199
G1 X244.989 Y35.936 E1.25307
G1 X247.185 Y36.293 E1.28236
G1 X248.536 Y36.912 E1.30193
G1 X249.724 Y37.806 E1.32151
G1 X250.694 Y38.932 E1.34108
G1 X251.402 Y40.239 E1.36065
G1 X251.815 Y41.667 E1.38022
G1 X251.919 Y42.866 E1.39607
G1 X251.919 Y52.866 E1.52775
G1 X251.76 Y54.344 E1.54732
G1 X251.289 Y55.754 E1.56689
G1 X250.528 Y57.031 E1.58647
G1 X249.512 Y58.116 E1.60604
G1 X248.289 Y58.96 E1.62561
M204 S625
M205 X10 Y10
G0 F2571.4 X247.891 Y58.693
M204 S500
M205 X5 Y5
G1 F1200 X246.539 Y59.189 E1.64457
G1 X244.989 Y59.376 E1.66513
G1 X214.989 Y59.376 E2.06015
G1 X213.557 Y59.217 E2.07912
G1 X212.196 Y58.746 E2.09808
G1 X210.971 Y57.988 E2.11705
G1 X209.943 Y56.979 E2.13602
G1 X209.162 Y55.768 E2.15499
G1 X208.666 Y54.416 E2.17396
G1 X208.479 Y52.866 E2.19451
G1 X208.479 Y42.866 E2.32619
G1 X208.638 Y41.434 E2.34516
G1 X209.109 Y40.073 E2.36412
G1 X209.867 Y38.848 E2.38309
G1 X210.876 Y37.82 E2.40206
G1 X212.087 Y37.039 E2.42103
G1 X213.439 Y36.543 E2.43999
G1 X214.989 Y36.356 E2.46055
G1 X244.989 Y36.356 E2.85557
G1 X247.115 Y36.713 E2.88396
G1 X248.416 Y37.331 E2.90292
G1 X249.549 Y38.22 E2.92189
G1 X250.459 Y39.337 E2.94086
G1 X251.102 Y40.626 E2.95983
G1 X251.444 Y42.025 E2.97879
G1 X251.499 Y42.866 E2.98989
G1 X251.499 Y52.866 E3.12156
G1 X251.34 Y54.298 E3.14053
G1 X250.869 Y55.659 E3.15950
G1 X250.111 Y56.884 E3.17846
G1 X249.102 Y57.912 E3.19743
G1 X247.891 Y58.693 E3.21640
M204 S625
M205 X10 Y10
G0 F2571.4 X247.497 Y58.415
M204 S500
M205 X5 Y5
G1 F1200 X246.17 Y58.84 E3.23475
G1 X244.989 Y58.956 E3.25038
G1 X214.989 Y58.956 E3.64540
G1 X213.605 Y58.797 E3.66374
G1 X212.293 Y58.327 E3.68209
G1 X211.123 Y57.571 E3.70044
G1 X210.155 Y56.57 E3.71877
G1 X209.44 Y55.374 E3.73712
G1 X209.015 Y54.047 E3.75547
G1 X208.899 Y52.866 E3.77109
G1 X208.899 Y42.866 E3.90277
G1 X209.058 Y41.482 E3.92111
G1 X209.528 Y40.17 E3.93946
G1 X210.284 Y39 E3.95780
G1 X211.285 Y38.032 E3.97614
G1 X212.481 Y37.317 E3.99449
G1 X213.808 Y36.892 E4.01283
G1 X214.989 Y36.776 E4.02846
G1 X244.989 Y36.776 E4.42348
G1 X247.042 Y37.133 E4.45092
G1 X248.291 Y37.749 E4.46926
G1 X249.368 Y38.634 E4.48761
G1 X250.215 Y39.739 E4.50594
G1 X250.789 Y41.009 E4.52429
G1 X251.059 Y42.376 E4.54264
G1 X251.079 Y52.866 E4.68077
G1 X250.92 Y54.25 E4.69911
G1 X250.45 Y55.562 E4.71746
G1 X249.694 Y56.732 E4.73580
G1 X248.693 Y57.7 E4.75414
G1 X247.497 Y58.415 E4.77249
M204 S625
M205 X10 Y10
G0 F2571.4 X247.107 Y58.126
M204 S500
M205 X5 Y5
G1 F1200 X245.809 Y58.476 E4.79019
G1 X244.989 Y58.536 E4.80102
G1 X214.989 Y58.536 E5.19604
G1 X213.654 Y58.377 E5.21374
G1 X212.395 Y57.908 E5.23143
G1 X211.281 Y57.156 E5.24913
G1 X210.376 Y56.162 E5.26683
G1 X209.729 Y54.984 E5.28453
G1 X209.379 Y53.686 E5.30223
G1 X209.319 Y52.866 E5.31305
G1 X209.319 Y42.866 E5.44473
G1 X209.478 Y41.531 E5.46243
G1 X209.947 Y40.272 E5.48012
G1 X210.699 Y39.158 E5.49782
G1 X211.693 Y38.253 E5.51552
G1 X212.871 Y37.606 E5.53322
G1 X214.169 Y37.256 E5.55092
G1 X214.989 Y37.196 E5.56174
G1 X244.989 Y37.196 E5.95677
G1 X246.967 Y37.552 E5.98323
G1 X248.162 Y38.167 E6.00093
G1 X249.179 Y39.046 E6.01863
G1 X249.961 Y40.14 E6.03633
G1 X250.463 Y41.386 E6.05402
G1 X250.659 Y42.866 E6.07368
G1 X250.659 Y52.866 E6.20535
G1 X250.5 Y54.201 E6.22305
G1 X250.031 Y55.46 E6.24075
G1 X249.279 Y56.574 E6.25844
G1 X248.285 Y57.479 E6.27614
G1 X247.107 Y58.126 E6.29384
M204 S625
M205 X10 Y10
G0 F2571.4 X247.88 Y57.248
M204 S500
M205 X5 Y5
G1 F1200 X246.721 Y57.822 E6.31087
G1 X245.457 Y58.095 E6.32790
G1 X214.989 Y58.116 E6.72908
G1 X213.706 Y57.957 E6.74610
G1 X212.5 Y57.489 E6.76314
G1 X211.446 Y56.74 E6.78016
G1 X210.607 Y55.757 E6.79718
G1 X210.033 Y54.598 E6.81421
G1 X209.76 Y53.334 E6.83124
G1 X209.739 Y42.866 E6.96908
G1 X209.898 Y41.583 E6.98610
G1 X210.366 Y40.377 E7.00313
G1 X211.115 Y39.323 E7.02016
G1 X212.098 Y38.484 E7.03717
G1 X213.257 Y37.91 E7.05420
G1 X214.521 Y37.637 E7.07123
G1 X244.989 Y37.616 E7.47242
G1 X246.889 Y37.972 E7.49787
G1 X248.028 Y38.585 E7.51490
G1 X248.982 Y39.458 E7.53193
G1 X249.694 Y40.537 E7.54895
G1 X250.121 Y41.758 E7.56598
G1 X250.239 Y42.866 E7.58066
G1 X250.239 Y52.866 E7.71233
G1 X250.08 Y54.149 E7.72935
G1 X249.612 Y55.355 E7.74639
G1 X248.863 Y56.409 E7.76341
G1 X247.88 Y57.248 E7.78043
M204 S625
M205 X10 Y10
G0 F2571.4 X247.477 Y57.006
M204 S500
M205 X5 Y5
G1 F1200 X246.34 Y57.503 E7.79677
G1 X244.989 Y57.696 E7.81474
G1 X214.989 Y57.696 E8.20976
G1 X213.759 Y57.537 E8.22609
G1 X212.611 Y57.07 E8.24241
G1 X211.619 Y56.326 E8.25874
G1 X210.849 Y55.354 E8.27506
G1 X210.352 Y54.217 E8.29140
G1 X210.159 Y52.866 E8.30937
G1 X210.159 Y42.866 E8.44105
G1 X210.318 Y41.636 E8.45738
G1 X210.785 Y40.488 E8.47370
G1 X211.529 Y39.496 E8.49002
G1 X212.501 Y38.726 E8.50635
G1 X213.638 Y38.229 E8.52269
G1 X214.989 Y38.036 E8.54066
G1 X244.989 Y38.036 E8.93568
G1 X246.808 Y38.392 E8.96009
G1 X247.887 Y39.002 E8.97641
G1 X248.776 Y39.868 E8.99275
G1 X249.414 Y40.93 E9.00906
G1 X249.761 Y42.121 E9.02540
G1 X249.819 Y42.866 E9.03524
G1 X249.819 Y52.866 E9.16691
G1 X249.66 Y54.096 E9.18324
G1 X249.193 Y55.244 E9.19956
G1 X248.449 Y56.236 E9.21589
G1 X247.477 Y57.006 E9.23222
M204 S625
M205 X10 Y10
G0 F2571.4 X247.076 Y56.751
M204 S500
M205 X5 Y5
G1 F1200 X245.967 Y57.166 E9.24781
G1 X244.989 Y57.276 E9.26077
G1 X214.989 Y57.276 E9.65579
G1 X213.815 Y57.117 E9.67139
G1 X212.726 Y56.651 E9.68699
G1 X211.8 Y55.912 E9.70259
G1 X211.104 Y54.953 E9.71819
G1 X210.689 Y53.844 E9.73378
G1 X210.579 Y52.866 E9.74674
G1 X210.579 Y42.866 E9.87841
G1 X210.738 Y41.692 E9.89401
G1 X211.204 Y40.603 E9.90961
G1 X211.943 Y39.677 E9.92521
G1 X212.902 Y38.981 E9.94081
G1 X214.011 Y38.566 E9.95640
G1 X214.989 Y38.456 E9.96936
G1 X244.989 Y38.456 E10.36438
G1 X246.723 Y38.811 E10.38769
G1 X247.74 Y39.419 E10.40329
G1 X248.558 Y40.276 E10.41889
G1 X249.119 Y41.319 E10.43449
G1 X249.382 Y42.474 E10.45008
G1 X249.399 Y52.866 E10.58692
G1 X249.24 Y54.04 E10.60252
G1 X248.774 Y55.129 E10.61812
G1 X248.035 Y56.055 E10.63372
G1 X247.076 Y56.751 E10.64932
M204 S625
M205 X10 Y10
G0 F2571.4 X246.68 Y56.48
M204 S500
M205 X5 Y5
G1 F1200 X245.603 Y56.808 E10.66414
G1 X214.989 Y56.856 E11.06725
G1 X213.874 Y56.697 E11.08208
G1 X212.848 Y56.233 E11.09691
G1 X211.992 Y55.5 E11.11175
G1 X211.375 Y54.557 E11.12658
G1 X211.047 Y53.48 E11.14141
G1 X210.999 Y42.866 E11.28117
G1 X211.158 Y41.751 E11.29600
G1 X211.622 Y40.725 E11.31083
G1 X212.355 Y39.869 E11.32567
G1 X213.298 Y39.252 E11.34050
G1 X214.375 Y38.924 E11.35533
G1 X244.989 Y38.876 E11.75844
G1 X246.634 Y39.231 E11.78059
G1 X247.584 Y39.835 E11.79542
G1 X248.328 Y40.681 E11.81025
G1 X248.805 Y41.702 E11.82509
G1 X248.979 Y42.866 E11.84059
G1 X248.979 Y52.866 E11.97226
G1 X248.82 Y53.981 E11.98709
G1 X248.356 Y55.007 E12.00192
G1 X247.623 Y55.863 E12.01676
G1 X246.68 Y56.48 E12.03160
M204 S625
M205 X10 Y10
G0 F2571.4 X246.29 Y56.191
M204 S500
M205 X5 Y5
G1 F1200 X245.779 Y56.347 E12.03863
G1 X244.989 Y56.436 E12.04910
G1 X214.989 Y56.436 E12.44412
G1 X213.936 Y56.277 E12.45814
G1 X212.976 Y55.815 E12.47217
G1 X212.196 Y55.09 E12.48619
G1 X211.664 Y54.167 E12.50022
G1 X211.508 Y53.656 E12.50726
G1 X211.419 Y52.866 E12.51773
G1 X211.419 Y42.866 E12.64940
G1 X211.578 Y41.813 E12.66342
G1 X212.04 Y40.853 E12.67745
G1 X212.765 Y40.073 E12.69147
G1 X213.688 Y39.541 E12.70550
G1 X214.199 Y39.385 E12.71253
G1 X214.989 Y39.296 E12.72300
G1 X244.989 Y39.296 E13.11802
G1 X246.539 Y39.65 E13.13896
G1 X247.419 Y40.251 E13.15299
G1 X248.082 Y41.084 E13.16701
G1 X248.47 Y42.076 E13.18104
G1 X248.559 Y42.866 E13.19150
G1 X248.559 Y52.866 E13.32318
G1 X248.4 Y53.919 E13.33720
G1 X247.938 Y54.879 E13.35123
G1 X247.213 Y55.659 E13.36525
G1 X246.29 Y56.191 E13.37928
M204 S625
M205 X10 Y10
G0 F2571.4 X246.805 Y55.44
M204 S500
M205 X5 Y5
G1 F1200 X245.906 Y55.879 E13.39245
G1 X244.989 Y56.016 E13.40466
G1 X214.989 Y56.016 E13.79968
G1 X214.002 Y55.857 E13.81285
G1 X213.114 Y55.397 E13.82601
G1 X212.415 Y54.682 E13.83918
G1 X211.976 Y53.783 E13.85235
G1 X211.839 Y52.866 E13.86456
G1 X211.839 Y42.866 E13.99624
G1 X211.998 Y41.879 E14.00940
G1 X212.458 Y40.991 E14.02257
G1 X213.173 Y40.292 E14.03573
G1 X214.072 Y39.853 E14.04891
G1 X214.989 Y39.716 E14.06112
G1 X244.989 Y39.716 E14.45614
G1 X246.439 Y40.069 E14.47579
G1 X247.242 Y40.665 E14.48896
G1 X247.819 Y41.482 E14.50213
G1 X248.11 Y42.438 E14.51528
G1 X248.139 Y52.866 E14.65259
G1 X247.98 Y53.853 E14.66576
G1 X247.52 Y54.741 E14.67893
G1 X246.805 Y55.44 E14.69209
M204 S625
M205 X10 Y10
G0 F2571.4 X246.4 Y55.203
M204 S500
M205 X5 Y5
G1 F1200 X245.534 Y55.541 E14.70433
G1 X244.989 Y55.596 E14.71155
G1 X214.989 Y55.596 E15.10657
G1 X214.072 Y55.437 E15.11882
G1 X213.262 Y54.98 E15.13107
G1 X212.652 Y54.277 E15.14332
G1 X212.314 Y53.411 E15.15556
G1 X212.259 Y52.866 E15.16278
G1 X212.259 Y42.866 E15.29445
G1 X212.418 Y41.949 E15.30671
G1 X212.875 Y41.139 E15.31895
G1 X213.578 Y40.529 E15.33121
G1 X214.444 Y40.191 E15.34345
G1 X214.989 Y40.136 E15.35066
G1 X244.989 Y40.136 E15.74568
G1 X246.331 Y40.488 E15.76395
G1 X247.051 Y41.077 E15.77620
G1 X247.532 Y41.873 E15.78845
G1 X247.719 Y42.866 E15.80175
G1 X247.719 Y52.866 E15.93342
G1 X247.56 Y53.783 E15.94568
G1 X247.103 Y54.593 E15.95793
G1 X246.4 Y55.203 E15.97018
M204 S625
M205 X10 Y10
G0 F2571.4 X246.002 Y54.942
M204 S500
M205 X5 Y5
G1 F1200 X245.6 Y55.094 E15.97584
G1 X244.989 Y55.176 E15.98396
G1 X214.989 Y55.176 E16.37898
G1 X214.149 Y55.018 E16.39023
G1 X213.423 Y54.565 E16.40150
G1 X212.913 Y53.879 E16.41276
G1 X212.761 Y53.477 E16.41842
G1 X212.679 Y52.866 E16.42653
G1 X212.679 Y42.866 E16.55821
G1 X212.837 Y42.026 E16.56946
G1 X213.29 Y41.3 E16.58073
G1 X213.976 Y40.79 E16.59199
G1 X214.378 Y40.638 E16.59764
G1 X214.989 Y40.556 E16.60576
G1 X244.989 Y40.556 E17.00078
G1 X246.213 Y40.907 E17.01755
G1 X246.842 Y41.487 E17.02882
G1 X247.217 Y42.255 E17.04007
G1 X247.299 Y42.866 E17.04819
G1 X247.299 Y52.866 E17.17986
G1 X247.141 Y53.706 E17.19112
G1 X246.688 Y54.432 E17.20238
G1 X246.002 Y54.942 E17.21364
M204 S625
M205 X10 Y10
G0 F2571.4 X245.612 Y54.65
M204 S500
M205 X5 Y5
G1 F1200 X244.989 Y54.756 E17.22196
G1 X214.989 Y54.756 E17.61698
G1 X214.233 Y54.598 E17.62715
G1 X213.603 Y54.151 E17.63732
G1 X213.205 Y53.489 E17.64749
G1 X213.099 Y52.866 E17.65581
G1 X213.099 Y42.866 E17.78749
G1 X213.257 Y42.11 E17.79766
G1 X213.704 Y41.48 E17.80783
G1 X214.366 Y41.082 E17.81800
G1 X214.989 Y40.976 E17.82632
G1 X244.989 Y40.976 E18.22134
G1 X246.083 Y41.325 E18.23646
G1 X246.608 Y41.892 E18.24664
G1 X246.863 Y42.621 E18.25681
G1 X246.879 Y52.866 E18.39171
G1 X246.721 Y53.622 E18.40188
G1 X246.274 Y54.252 E18.41205
G1 X245.612 Y54.65 E18.42222
M204 S625
M205 X10 Y10
G0 F2571.4 X245.863 Y54.048
M204 S500
M205 X5 Y5
G1 F1200 X245.238 Y54.315 E18.43117
G1 X214.989 Y54.336 E18.82947
G1 X214.327 Y54.179 E18.83843
G1 X213.807 Y53.74 E18.84739
G1 X213.54 Y53.115 E18.85634
G1 X213.519 Y42.866 E18.99129
G1 X213.676 Y42.204 E19.00025
G1 X214.115 Y41.684 E19.00921
G1 X214.74 Y41.417 E19.01816
G1 X244.989 Y41.396 E19.41646
G1 X245.936 Y41.742 E19.42974
G1 X246.341 Y42.289 E19.43870
G1 X246.459 Y42.866 E19.44645
G1 X246.459 Y52.866 E19.57813
G1 X246.302 Y53.528 E19.58708
G1 X245.863 Y54.048 E19.59605
M204 S625
M205 X10 Y10
G0 F2571.4 X245.461 Y53.804
M204 S500
M205 X5 Y5
G1 F1200 X244.989 Y53.916 E19.60243
G1 X214.989 Y53.916 E19.99745
G1 X214.438 Y53.76 E20.00500
G1 X214.051 Y53.338 E20.01253
G1 X213.939 Y52.866 E20.01892
G1 X213.939 Y42.866 E20.15060
G1 X214.095 Y42.315 E20.15814
G1 X214.517 Y41.928 E20.16568
G1 X214.989 Y41.816 E20.17206
G1 X244.989 Y41.816 E20.56709
G1 X245.763 Y42.156 E20.57822
G1 X246.02 Y42.668 E20.58576
G1 X246.039 Y52.866 E20.72004
G1 X245.883 Y53.417 E20.72758
G1 X245.461 Y53.804 E20.73512
M204 S625
M205 X10 Y10
G0 F2571.4 X245.291 Y53.419
M204 S500
M205 X5 Y5
G1 F1200 X244.989 Y53.496 E20.73923
G1 X214.989 Y53.496 E21.13425
G1 X214.577 Y53.342 E21.14004
G1 X214.436 Y53.168 E21.14299
G1 X214.359 Y52.866 E21.14709
G1 X214.359 Y42.866 E21.27877
G1 X214.513 Y42.454 E21.28456
G1 X214.687 Y42.313 E21.28751
G1 X214.989 Y42.236 E21.29161
G1 X244.989 Y42.236 E21.68663
G1 X245.542 Y42.564 E21.69510
G1 X245.619 Y42.866 E21.69920
G1 X245.619 Y52.866 E21.83087
G1 X245.465 Y53.278 E21.83667
G1 X245.291 Y53.419 E21.83962
M204 S625
M205 X10 Y10
G0 F2571.4 X245.057 Y53.065
M204 S500
M205 X5 Y5
G1 F1200 X214.989 Y53.076 E22.23553
G1 X214.79 Y52.934 E22.23875
G1 X214.779 Y42.866 E22.37132
G1 X214.921 Y42.667 E22.37454
G1 X244.989 Y42.656 E22.77046
G1 X245.199 Y42.866 E22.77437
G1 X245.199 Y52.866 E22.90604
G1 X245.057 Y53.065 E22.90926
M204 S625
M205 X10 Y10
G1 F1500 E16.40926
;MESH:10x30x5.STL
G0 F2571.4 X244.375 Y52.252
G0 X215.659 Y52.196
G0 X215.199 Y52.656
M204 S500
M205 X5 Y5
;TYPE:WALL-OUTER
G1 F1500 E22.90926
G1 F1200 X215.199 Y43.076 E23.03540
G1 X244.779 Y43.076 E23.42490
G1 X244.779 Y52.656 E23.55104
G1 X215.199 Y52.656 E23.94053
M204 S625
M205 X10 Y10
G0 F2571.4 X215.199 Y52.456
G0 X215.661 Y52.194
G0 X215.589 Y52.266
M204 S500
M205 X5 Y5
;TYPE:WALL-INNER
G1 F1200 X215.589 Y43.466 E24.03985
G1 X244.389 Y43.466 E24.36490
G1 X244.389 Y52.266 E24.46422
G1 X215.589 Y52.266 E24.78926
M204 S625
M205 X10 Y10
G0 F2571.4 X215.949 Y51.906
M204 S500
M205 X5 Y5
G1 F1200 X215.949 Y43.826 E24.88046
G1 X244.029 Y43.826 E25.19738
G1 X244.029 Y51.906 E25.28857
G1 X215.949 Y51.906 E25.60549
M204 S625
M205 X10 Y10
G0 F2571.4 X216.329 Y51.526
M204 S500
M205 X5 Y5
;TYPE:SKIN
G1 F1200 X216.329 Y44.206 E25.70188
G1 X243.649 Y44.206 E26.06161
G1 X243.649 Y51.526 E26.15799
G1 X216.329 Y51.526 E26.51773
M204 S625
M205 X10 Y10
G0 F2571.4 X217.098 Y51.381
M204 S500
M205 X5 Y5
G1 F1200 X216.473 Y50.756 E26.52937
M204 S625
M205 X10 Y10
G0 F2571.4 X216.473 Y50.162
M204 S500
M205 X5 Y5
G1 F1200 X217.692 Y51.381 E26.55206
M204 S625
M205 X10 Y10
G0 F2571.4 X218.286 Y51.381
M204 S500
M205 X5 Y5
G1 F1200 X216.473 Y49.568 E26.58583
M204 S625
M205 X10 Y10
G0 F2571.4 X216.473 Y48.974
M204 S500
M205 X5 Y5
G1 F1200 X218.88 Y51.381 E26.63065
M204 S625
M205 X10 Y10
G0 F2571.4 X219.474 Y51.381
M204 S500
M205 X5 Y5
G1 F1200 X216.473 Y48.38 E26.68653
M204 S625
M205 X10 Y10
G0 F2571.4 X216.473 Y47.786
M204 S500
M205 X5 Y5
G1 F1200 X220.068 Y51.381 E26.75348
M204 S625
M205 X10 Y10
G0 F2571.4 X220.662 Y51.381
M204 S500
M205 X5 Y5
G1 F1200 X216.473 Y47.192 E26.83148
M204 S625
M205 X10 Y10
G0 F2571.4 X216.473 Y46.598
M204 S500
M205 X5 Y5
G1 F1200 X221.256 Y51.381 E26.92055
M204 S625
M205 X10 Y10
G0 F2571.4 X221.85 Y51.381
M204 S500
M205 X5 Y5
G1 F1200 X216.473 Y46.004 E27.02068
M204 S625
M205 X10 Y10
G0 F2571.4 X216.473 Y45.41
