;START_OF_HEADER
;HEADER_VERSION:0.1
;FLAVOR:Griffin
;GENERATOR.NAME:Cura_SteamEngine
;GENERATOR.VERSION:4.6.2
;GENERATOR.BUILD_DATE:2020-07-13
;TARGET_MACHINE.NAME:Ultimaker S5
;EXTRUDER_TRAIN.0.INITIAL_TEMPERATURE:205
;EXTRUDER_TRAIN.0.MATERIAL.VOLUME_USED:1672
;EXTRUDER_TRAIN.0.MATERIAL.GUID:506c9f0d-e3aa-4bd4-b2d2-23e2425b1aa9
;EXTRUDER_TRAIN.0.NOZZLE.DIAMETER:0.4
;EXTRUDER_TRAIN.0.NOZZLE.NAME:AA 0.4
;BUILD_PLATE.TYPE:glass
;BUILD_PLATE.INITIAL_TEMPERATURE:60
;BUILD_VOLUME.TEMPERATURE:28
;PRINT.TIME:874
;PRINT.GROUPS:1
;PRINT.SIZE.MIN.X:143.07
;PRINT.SIZE.MIN.Y:108.07
;PRINT.SIZE.MIN.Z:0.2
;PRINT.SIZE.MAX.X:186.93
;PRINT.SIZE.MAX.Y:131.93
;PRINT.SIZE.MAX.Z:5
;END_OF_HEADER
;Generated with Cura_SteamEngine 4.6.2
T0
M82 ;absolute extrusion mode

G92 E0
M109 S205
G280 S1
G0 Z20.001
G1 F1500 E-6.5
;LAYER_COUNT:25
;LAYER:0
M107
M204 S625
M205 X10 Y10
G1 F600 Z2.2
G0 F2571.4 X185.539 Y129.165 Z2.2
M204 S500
M205 X5 Y5
;TYPE:SKIRT
G1 F600 Z0.2
G1 F1500 E0.00000
G1 F1200 X184.523 Y130.25 E0.01957
G1 X183.3 Y131.094 E0.03914
G1 X181.924 Y131.658 E0.05872
G1 X180.46 Y131.915 E0.07829
G1 X150 Y131.93 E0.47937
G1 X148.522 Y131.771 E0.49894
G1 X147.112 Y131.3 E0.51852
G1 X145.835 Y130.539 E0.53809
G1 X144.75 Y129.523 E0.55767
G1 X143.906 Y128.3 E0.57723
G1 X143.342 Y126.924 E0.59681
G1 X143.085 Y125.46 E0.61638
G1 X143.07 Y115 E0.75412
G1 X143.229 Y113.522 E0.77369
G1 X143.7 Y112.112 E0.79326
G1 X144.461 Y110.835 E0.81284
G1 X145.477 Y109.75 E0.83241
G1 X146.7 Y108.906 E0.85198
G1 X148.076 Y108.342 E0.87156
G1 X149.54 Y108.085 E0.89113
G1 X180 Y108.07 E1.29221
G1 X182.196 Y108.427 E1.32150
G1 X183.547 Y109.046 E1.34107
G1 X184.735 Y109.94 E1.36065
G1 X185.705 Y111.066 E1.38022
G1 X186.413 Y112.373 E1.39979
G1 X186.826 Y113.801 E1.41936
G1 X186.93 Y115 E1.43521
G1 X186.93 Y125 E1.56688
G1 X186.771 Y126.478 E1.58646
G1 X186.3 Y127.888 E1.60603
G1 X185.539 Y129.165 E1.62561
M204 S625
M205 X10 Y10
G0 F2571.4 X185.122 Y129.018
M204 S500
M205 X5 Y5
G1 F1200 X184.113 Y130.046 E1.64457
G1 X182.902 Y130.827 E1.66355
G1 X181.55 Y131.323 E1.68251
G1 X180 Y131.51 E1.70307
G1 X150 Y131.51 E2.09809
G1 X148.568 Y131.351 E2.11706
G1 X147.207 Y130.88 E2.13602
G1 X145.982 Y130.122 E2.15499
G1 X144.954 Y129.113 E2.17396
G1 X144.173 Y127.902 E2.19293
G1 X143.677 Y126.55 E2.21190
G1 X143.49 Y125 E2.23245
G1 X143.49 Y115 E2.36413
G1 X143.649 Y113.568 E2.38310
G1 X144.12 Y112.207 E2.40206
G1 X144.878 Y110.982 E2.42103
G1 X145.887 Y109.954 E2.44000
G1 X147.098 Y109.173 E2.45897
G1 X148.45 Y108.677 E2.47793
G1 X150 Y108.49 E2.49849
G1 X180 Y108.49 E2.89351
G1 X182.126 Y108.847 E2.92190
G1 X183.427 Y109.465 E2.94086
G1 X184.56 Y110.354 E2.95983
G1 X185.47 Y111.471 E2.97880
G1 X186.113 Y112.76 E2.99777
G1 X186.455 Y114.159 E3.01673
G1 X186.51 Y115 E3.02783
G1 X186.51 Y125 E3.15950
G1 X186.351 Y126.432 E3.17847
G1 X185.88 Y127.793 E3.19744
G1 X185.122 Y129.018 E3.21640
M204 S625
M205 X10 Y10
G0 F2571.4 X184.705 Y128.866
M204 S500
M205 X5 Y5
G1 F1200 X183.704 Y129.834 E3.23474
G1 X182.508 Y130.549 E3.25309
G1 X181.181 Y130.974 E3.27144
G1 X180 Y131.09 E3.28706
G1 X150 Y131.09 E3.68208
G1 X148.616 Y130.931 E3.70043
G1 X147.304 Y130.461 E3.71878
G1 X146.134 Y129.705 E3.73712
G1 X145.166 Y128.704 E3.75545
G1 X144.451 Y127.508 E3.77380
G1 X144.026 Y126.181 E3.79215
G1 X143.91 Y125 E3.80777
G1 X143.91 Y115 E3.93945
G1 X144.069 Y113.616 E3.95779
G1 X144.539 Y112.304 E3.97614
G1 X145.295 Y111.134 E3.99449
G1 X146.296 Y110.166 E4.01282
G1 X147.492 Y109.451 E4.03117
G1 X148.819 Y109.026 E4.04952
G1 X150 Y108.91 E4.06514
G1 X180 Y108.91 E4.46016
G1 X182.053 Y109.267 E4.48760
G1 X183.302 Y109.883 E4.50594
G1 X184.379 Y110.768 E4.52429
G1 X185.226 Y111.873 E4.54263
G1 X185.8 Y113.143 E4.56098
G1 X186.07 Y114.51 E4.57933
G1 X186.09 Y125 E4.71745
G1 X185.931 Y126.384 E4.73579
G1 X185.461 Y127.696 E4.75415
G1 X184.705 Y128.866 E4.77249
M204 S625
M205 X10 Y10
G0 F2571.4 X184.29 Y128.708
M204 S500
M205 X5 Y5
G1 F1200 X183.296 Y129.613 E4.79019
G1 X182.118 Y130.26 E4.80788
G1 X180.82 Y130.61 E4.82559
G1 X180 Y130.67 E4.83641
G1 X150 Y130.67 E5.23143
G1 X148.665 Y130.511 E5.24914
G1 X147.406 Y130.042 E5.26683
G1 X146.292 Y129.29 E5.28453
G1 X145.387 Y128.296 E5.30223
G1 X144.74 Y127.118 E5.31992
G1 X144.39 Y125.82 E5.33762
G1 X144.33 Y125 E5.34845
G1 X144.33 Y115 E5.48012
G1 X144.489 Y113.665 E5.49783
G1 X144.958 Y112.406 E5.51552
G1 X145.71 Y111.292 E5.53322
G1 X146.704 Y110.387 E5.55092
G1 X147.882 Y109.74 E5.56861
G1 X149.18 Y109.39 E5.58631
G1 X150 Y109.33 E5.59714
G1 X180 Y109.33 E5.99216
G1 X181.978 Y109.686 E6.01863
G1 X183.173 Y110.301 E6.03632
G1 X184.19 Y111.18 E6.05402
G1 X184.972 Y112.274 E6.07173
G1 X185.474 Y113.52 E6.08942
G1 X185.67 Y115 E6.10908
G1 X185.67 Y125 E6.24075
G1 X185.511 Y126.335 E6.25845
G1 X185.042 Y127.594 E6.27614
G1 X184.29 Y128.708 E6.29384
M204 S625
M205 X10 Y10
G0 F2571.4 X183.874 Y128.543
M204 S500
M205 X5 Y5
G1 F1200 X182.891 Y129.382 E6.31086
G1 X181.732 Y129.956 E6.32789
G1 X180.468 Y130.229 E6.34491
G1 X150 Y130.25 E6.74610
G1 X148.717 Y130.091 E6.76312
G1 X147.511 Y129.623 E6.78016
G1 X146.457 Y128.874 E6.79718
G1 X145.618 Y127.891 E6.81420
G1 X145.044 Y126.732 E6.83123
G1 X144.771 Y125.468 E6.84826
G1 X144.75 Y115 E6.98609
G1 X144.909 Y113.717 E7.00312
G1 X145.377 Y112.511 E7.02015
G1 X146.126 Y111.457 E7.03717
G1 X147.109 Y110.618 E7.05419
G1 X148.268 Y110.044 E7.07122
G1 X149.532 Y109.771 E7.08825
G1 X180 Y109.75 E7.48943
G1 X181.9 Y110.106 E7.51489
G1 X183.039 Y110.719 E7.53192
G1 X183.993 Y111.592 E7.54895
G1 X184.705 Y112.671 E7.56597
G1 X185.132 Y113.892 E7.58300
G1 X185.25 Y115 E7.59767
G1 X185.25 Y125 E7.72935
G1 X185.091 Y126.283 E7.74637
G1 X184.623 Y127.489 E7.76340
G1 X183.874 Y128.543 E7.78043
M204 S625
M205 X10 Y10
G0 F2571.4 X183.46 Y128.37
M204 S500
M205 X5 Y5
G1 F1200 X182.488 Y129.14 E7.79676
G1 X181.351 Y129.637 E7.81310
G1 X180 Y129.83 E7.83107
G1 X150 Y129.83 E8.22609
G1 X148.77 Y129.671 E8.24242
G1 X147.622 Y129.204 E8.25874
G1 X146.63 Y128.46 E8.27506
G1 X145.86 Y127.488 E8.29139
G1 X145.363 Y126.351 E8.30773
G1 X145.17 Y125 E8.32570
G1 X145.17 Y115 E8.45738
G1 X145.329 Y113.77 E8.47371
G1 X145.796 Y112.622 E8.49002
G1 X146.54 Y111.63 E8.50635
G1 X147.512 Y110.86 E8.52268
G1 X148.649 Y110.363 E8.53902
G1 X150 Y110.17 E8.55699
G1 X180 Y110.17 E8.95201
G1 X181.819 Y110.526 E8.97642
G1 X182.898 Y111.136 E8.99274
G1 X183.787 Y112.002 E9.00908
G1 X184.425 Y113.064 E9.02539
G1 X184.772 Y114.255 E9.04173
G1 X184.83 Y115 E9.05157
G1 X184.83 Y125 E9.18324
G1 X184.671 Y126.23 E9.19957
G1 X184.204 Y127.378 E9.21589
G1 X183.46 Y128.37 E9.23222
M204 S625
M205 X10 Y10
G0 F2571.4 X183.785 Y127.263
M204 S500
M205 X5 Y5
G1 F1200 X183.046 Y128.189 E9.24782
G1 X182.087 Y128.885 E9.26342
G1 X180.978 Y129.3 E9.27901
G1 X180 Y129.41 E9.29197
G1 X150 Y129.41 E9.68699
G1 X148.826 Y129.251 E9.70259
G1 X147.737 Y128.785 E9.71819
G1 X146.811 Y128.046 E9.73379
G1 X146.115 Y127.087 E9.74939
G1 X145.7 Y125.978 E9.76498
G1 X145.59 Y125 E9.77794
G1 X145.59 Y115 E9.90962
G1 X145.749 Y113.826 E9.92522
G1 X146.215 Y112.737 E9.94081
G1 X146.954 Y111.811 E9.95641
G1 X147.913 Y111.115 E9.97201
G1 X149.022 Y110.7 E9.98761
G1 X150 Y110.59 E10.00057
G1 X180 Y110.59 E10.39559
G1 X181.734 Y110.945 E10.41889
G1 X182.751 Y111.553 E10.43449
G1 X183.569 Y112.41 E10.45009
G1 X184.13 Y113.453 E10.46569
G1 X184.393 Y114.608 E10.48129
G1 X184.41 Y125 E10.61812
G1 X184.251 Y126.174 E10.63372
G1 X183.785 Y127.263 E10.64932
M204 S625
M205 X10 Y10
G0 F2571.4 X183.367 Y127.141
M204 S500
M205 X5 Y5
G1 F1200 X182.634 Y127.997 E10.66416
G1 X181.691 Y128.614 E10.67900
G1 X180.614 Y128.942 E10.69382
G1 X150 Y128.99 E11.09693
G1 X148.885 Y128.831 E11.11176
G1 X147.859 Y128.367 E11.12658
G1 X147.003 Y127.634 E11.14142
G1 X146.386 Y126.691 E11.15626
G1 X146.058 Y125.614 E11.17109
G1 X146.01 Y115 E11.31085
G1 X146.169 Y113.885 E11.32568
G1 X146.633 Y112.859 E11.34050
G1 X147.366 Y112.003 E11.35534
G1 X148.309 Y111.386 E11.37018
G1 X149.386 Y111.058 E11.38501
G1 X180 Y111.01 E11.78811
G1 X181.645 Y111.365 E11.81027
G1 X182.595 Y111.969 E11.82509
G1 X183.339 Y112.815 E11.83993
G1 X183.816 Y113.836 E11.85477
G1 X183.99 Y115 E11.87027
G1 X183.99 Y125 E12.00194
G1 X183.831 Y126.115 E12.01677
G1 X183.367 Y127.141 E12.03160
M204 S625
M205 X10 Y10
G0 F2571.4 X182.949 Y127.013
M204 S500
M205 X5 Y5
G1 F1200 X182.224 Y127.793 E12.04562
G1 X181.301 Y128.325 E12.05965
G1 X180.79 Y128.481 E12.06668
G1 X180 Y128.57 E12.07715
G1 X150 Y128.57 E12.47217
G1 X148.947 Y128.411 E12.48619
G1 X147.987 Y127.949 E12.50022
G1 X147.207 Y127.224 E12.51424
G1 X146.675 Y126.301 E12.52827
G1 X146.519 Y125.79 E12.53531
G1 X146.43 Y125 E12.54577
G1 X146.43 Y115 E12.67745
G1 X146.589 Y113.947 E12.69147
G1 X147.051 Y112.987 E12.70550
G1 X147.776 Y112.207 E12.71952
G1 X148.699 Y111.675 E12.73355
G1 X149.21 Y111.519 E12.74058
G1 X150 Y111.43 E12.75105
G1 X180 Y111.43 E13.14607
G1 X181.55 Y111.784 E13.16701
G1 X182.43 Y112.385 E13.18104
G1 X183.093 Y113.218 E13.19506
G1 X183.481 Y114.21 E13.20909
G1 X183.57 Y115 E13.21955
G1 X183.57 Y125 E13.35123
G1 X183.411 Y126.053 E13.36525
G1 X182.949 Y127.013 E13.37928
M204 S625
M205 X10 Y10
G0 F2571.4 X182.531 Y126.875
M204 S500
M205 X5 Y5
G1 F1200 X181.816 Y127.574 E13.39244
G1 X180.917 Y128.013 E13.40562
G1 X180 Y128.15 E13.41783
G1 X150 Y128.15 E13.81285
G1 X149.013 Y127.991 E13.82601
G1 X148.125 Y127.531 E13.83918
G1 X147.426 Y126.816 E13.85235
G1 X146.987 Y125.917 E13.86552
G1 X146.85 Y125 E13.87773
G1 X146.85 Y115 E14.00940
G1 X147.009 Y114.013 E14.02257
G1 X147.469 Y113.125 E14.03573
G1 X148.184 Y112.426 E14.04890
G1 X149.083 Y111.987 E14.06207
G1 X150 Y111.85 E14.07428
G1 X180 Y111.85 E14.46930
G1 X181.45 Y112.203 E14.48895
G1 X182.253 Y112.799 E14.50212
G1 X182.83 Y113.616 E14.51529
G1 X183.121 Y114.572 E14.52845
G1 X183.15 Y125 E14.66576
G1 X182.991 Y125.987 E14.67892
G1 X182.531 Y126.875 E14.69209
M204 S625
M205 X10 Y10
G0 F2571.4 X182.114 Y126.727
M204 S500
M205 X5 Y5
G1 F1200 X181.411 Y127.337 E14.70435
G1 X180.545 Y127.675 E14.71659
G1 X180 Y127.73 E14.72380
G1 X150 Y127.73 E15.11882
G1 X149.083 Y127.571 E15.13108
G1 X148.273 Y127.114 E15.14332
G1 X147.663 Y126.411 E15.15558
G1 X147.325 Y125.545 E15.16782
G1 X147.27 Y125 E15.17503
G1 X147.27 Y115 E15.30671
G1 X147.429 Y114.083 E15.31896
G1 X147.886 Y113.273 E15.33121
G1 X148.589 Y112.663 E15.34346
G1 X149.455 Y112.325 E15.35570
G1 X150 Y112.27 E15.36292
G1 X180 Y112.27 E15.75794
G1 X181.342 Y112.622 E15.77621
G1 X182.062 Y113.211 E15.78846
G1 X182.543 Y114.007 E15.80070
G1 X182.73 Y115 E15.81401
G1 X182.73 Y125 E15.94568
G1 X182.571 Y125.917 E15.95793
G1 X182.114 Y126.727 E15.97018
M204 S625
M205 X10 Y10
G0 F2571.4 X181.699 Y126.566
M204 S500
M205 X5 Y5
G1 F1200 X181.013 Y127.076 E15.98144
G1 X180.611 Y127.228 E15.98710
G1 X180 Y127.31 E15.99521
G1 X150 Y127.31 E16.39023
G1 X149.16 Y127.152 E16.40149
G1 X148.434 Y126.699 E16.41276
G1 X147.924 Y126.013 E16.42401
G1 X147.772 Y125.611 E16.42967
G1 X147.69 Y125 E16.43779
G1 X147.69 Y115 E16.56946
G1 X147.848 Y114.16 E16.58072
G1 X148.301 Y113.434 E16.59199
G1 X148.987 Y112.924 E16.60324
G1 X149.389 Y112.772 E16.60890
G1 X150 Y112.69 E16.61702
G1 X180 Y112.69 E17.01204
G1 X181.224 Y113.041 E17.02881
G1 X181.853 Y113.621 E17.04007
G1 X182.228 Y114.389 E17.05133
G1 X182.31 Y115 E17.05944
G1 X182.31 Y125 E17.19112
G1 X182.152 Y125.84 E17.20237
G1 X181.699 Y126.566 E17.21364
M204 S625
M205 X10 Y10
G0 F2571.4 X181.285 Y126.386
M204 S500
M205 X5 Y5
G1 F1200 X180.623 Y126.784 E17.22381
G1 X180 Y126.89 E17.23213
G1 X150 Y126.89 E17.62715
G1 X149.244 Y126.732 E17.63732
G1 X148.614 Y126.285 E17.64749
G1 X148.216 Y125.623 E17.65766
G1 X148.11 Y125 E17.66599
G1 X148.11 Y115 E17.79766
G1 X148.268 Y114.244 E17.80783
G1 X148.715 Y113.614 E17.81800
G1 X149.377 Y113.216 E17.82817
G1 X150 Y113.11 E17.83649
G1 X180 Y113.11 E18.23151
G1 X181.094 Y113.459 E18.24663
G1 X181.619 Y114.026 E18.25681
G1 X181.874 Y114.755 E18.26698
G1 X181.89 Y125 E18.40188
G1 X181.732 Y125.756 E18.41205
G1 X181.285 Y126.386 E18.42222
M204 S625
M205 X10 Y10
G0 F2571.4 X181.313 Y125.662
M204 S500
M205 X5 Y5
G1 F1200 X180.874 Y126.182 E18.43118
G1 X180.249 Y126.449 E18.44013
G1 X150 Y126.47 E18.83843
G1 X149.338 Y126.313 E18.84739
G1 X148.818 Y125.874 E18.85635
G1 X148.551 Y125.249 E18.86530
G1 X148.53 Y115 E19.00025
G1 X148.687 Y114.338 E19.00921
G1 X149.126 Y113.818 E19.01817
G1 X149.751 Y113.551 E19.02712
G1 X180 Y113.53 E19.42542
G1 X180.947 Y113.876 E19.43870
G1 X181.352 Y114.423 E19.44766
G1 X181.47 Y115 E19.45541
G1 X181.47 Y125 E19.58709
G1 X181.313 Y125.662 E19.59605
M204 S625
M205 X10 Y10
G0 F2571.4 X180.894 Y125.551
M204 S500
M205 X5 Y5
G1 F1200 X180.472 Y125.938 E19.60359
G1 X180 Y126.05 E19.60997
G1 X150 Y126.05 E20.00499
G1 X149.449 Y125.894 E20.01253
G1 X149.062 Y125.472 E20.02007
G1 X148.95 Y125 E20.02646
G1 X148.95 Y115 E20.15814
G1 X149.106 Y114.449 E20.16568
G1 X149.528 Y114.062 E20.17322
G1 X150 Y113.95 E20.17960
G1 X180 Y113.95 E20.57462
G1 X180.774 Y114.29 E20.58576
G1 X181.031 Y114.802 E20.59330
G1 X181.05 Y125 E20.72758
G1 X180.894 Y125.551 E20.73512
M204 S625
M205 X10 Y10
G0 F2571.4 X180.476 Y125.412
M204 S500
M205 X5 Y5
G1 F1200 X180.302 Y125.553 E20.73807
G1 X180 Y125.63 E20.74217
G1 X150 Y125.63 E21.13720
G1 X149.588 Y125.476 E21.14299
G1 X149.447 Y125.302 E21.14594
G1 X149.37 Y125 E21.15004
G1 X149.37 Y115 E21.28171
G1 X149.524 Y114.588 E21.28751
G1 X149.698 Y114.447 E21.29045
G1 X150 Y114.37 E21.29456
G1 X180 Y114.37 E21.68958
G1 X180.553 Y114.698 E21.69805
G1 X180.63 Y115 E21.70215
G1 X180.63 Y125 E21.83382
G1 X180.476 Y125.412 E21.83962
M204 S625
M205 X10 Y10
G0 F2571.4 X180.068 Y125.199
M204 S500
M205 X5 Y5
G1 F1200 X150 Y125.21 E22.23553
G1 X149.801 Y125.068 E22.23875
G1 X149.79 Y115 E22.37132
G1 X149.932 Y114.801 E22.37454
G1 X180 Y114.79 E22.77046
G1 X180.21 Y115 E22.77437
G1 X180.21 Y125 E22.90604
G1 X180.068 Y125.199 E22.90926
M204 S625
M205 X10 Y10
G1 F1500 E16.40926
;MESH:10x30x5.STL
G0 F2571.4 X179.386 Y124.386
G0 X150.67 Y124.33
G0 X150.21 Y124.79
M204 S500
M205 X5 Y5
;TYPE:WALL-OUTER
G1 F1500 E22.90926
G1 F1200 X150.21 Y115.21 E23.03540
G1 X179.79 Y115.21 E23.42490
G1 X179.79 Y124.79 E23.55104
G1 X150.21 Y124.79 E23.94053
M204 S625
M205 X10 Y10
G0 F2571.4 X150.21 Y124.59
G0 X150.672 Y124.328
G0 X150.6 Y124.4
M204 S500
M205 X5 Y5
;TYPE:WALL-INNER
G1 F1200 X150.6 Y115.6 E24.03985
G1 X179.4 Y115.6 E24.36490
G1 X179.4 Y124.4 E24.46422
G1 X150.6 Y124.4 E24.78926
M204 S625
M205 X10 Y10
G0 F2571.4 X150.96 Y124.04
M204 S500
M205 X5 Y5
G1 F1200 X150.96 Y115.96 E24.88046
G1 X179.04 Y115.96 E25.19738
G1 X179.04 Y124.04 E25.28857
G1 X150.96 Y124.04 E25.60549
M204 S625
M205 X10 Y10
G0 F2571.4 X151.34 Y123.66
M204 S500
M205 X5 Y5
;TYPE:SKIN
G1 F1200 X151.34 Y116.34 E25.70188
G1 X178.66 Y116.34 E26.06161
G1 X178.66 Y123.66 E26.15799
G1 X151.34 Y123.66 E26.51773
M204 S625
M205 X10 Y10
G0 F2571.4 X152.025 Y123.515
M204 S500
M205 X5 Y5
G1 F1200 X151.484 Y122.973 E26.52781
M204 S625
M205 X10 Y10
G0 F2571.4 X151.484 Y122.379
M204 S500
M205 X5 Y5
G1 F1200 X152.619 Y123.515 E26.54896
M204 S625
M205 X10 Y10
G0 F2571.4 X153.213 Y123.515
M204 S500
M205 X5 Y5
G1 F1200 X151.484 Y121.785 E26.58116
M204 S625
M205 X10 Y10
G0 F2571.4 X151.484 Y121.191
M204 S500
M205 X5 Y5
G1 F1200 X153.807 Y123.515 E26.62443
M204 S625
M205 X10 Y10
G0 F2571.4 X154.401 Y123.515
M204 S500
M205 X5 Y5
G1 F1200 X151.484 Y120.597 E26.67876
M204 S625
M205 X10 Y10
G0 F2571.4 X151.484 Y120.003
M204 S500
M205 X5 Y5
G1 F1200 X154.995 Y123.515 E26.74415
M204 S625
M205 X10 Y10
G0 F2571.4 X155.589 Y123.515
M204 S500
M205 X5 Y5
G1 F1200 X151.484 Y119.409 E26.82060
M204 S625
M205 X10 Y10
G0 F2571.4 X151.484 Y118.815
M204 S500
M205 X5 Y5
G1 F1200 X156.183 Y123.515 E26.90811
M204 S625
M205 X10 Y10
G0 F2571.4 X156.777 Y123.515
M204 S500
M205 X5 Y5
G1 F1200 X151.484 Y118.221 E27.00668
M204 S625
M205 X10 Y10
G0 F2571.4 X151.484 Y117.627
M204 S500
M205 X5 Y5
G1 F1200 X157.371 Y123.515 E27.11632
M204 S625
M205 X10 Y10
G0 F2571.4 X157.965 Y123.515
M204 S500
M205 X5 Y5
G1 F1200 X151.484 Y117.033 E27.23701
